X:1
T:Title
%%score { 1 | ( 2 3 ) }
L:1/8
M:4/4
K:C
V:1 treble nm="Grand Piano"
V:2 bass 
V:3 bass 
V:1
 z4 z2[Q:1/4=106] C2 | C3 C E>E G>G | [Ec]6 [Ec]2 | [Fc]2 [CFA]2 [CEG]2 .[B,DF]2 |[M:3/4] [G,CE]6 | %5
[M:1/4] [G,E]2 |[M:4/4] [^G,DE]3 [G,DE] [E^G]>[EG] [EB]>[EB] | [Ec]6 [Ec]2 | B3 c B2 A2 | %9
[M:3/4] [G,B,G]6 |[M:1/4] G2 |[M:4/4] d3 B A2 B2 | [_EA]2 [=EG]2 E2 G2 | d3 B A2 B2 | %14
[M:3/4] [_EA]4 G2 |[M:1/4] C2 |[M:4/4] C3 C E>E G>[CE_B] | A6 d2 | c2 e2 d3 [Dc] |[M:3/4] [Ec]6 |] %20
V:2
 z4 z2 C,2 | C,3 C, E,>E, G,>G, | [C,G,]6 [C,G,]2 | [F,A,]2 F,2 G,2 z G, |[M:3/4] C,6 | %5
[M:1/4] C,2 |[M:4/4] B,,3 B,, [B,,E,]>[B,,D,] [E,^G,]>[E,G,] | [A,,A,]6 [A,,G,]2 | %8
 [D,G,D]3 [D,A,D] [D,G,D]2 [D,^F,C]2 |[M:3/4] G,,6 |[M:1/4] G,2 | %11
[M:4/4][K:treble] [G,B,F]3 [G,DF] [G,CF]2 [G,B,F]2 | [C,C]2 [C,C]2 [C,G,C]2 [E,C]2 | %13
 [G,B,F]3 [G,DF] [G,CF]2 [G,B,F]2 |[M:3/4][K:bass] z2 z2 E2 |[M:1/4] C,2 | %16
[M:4/4] C,3 C, E,>E, G,>C, | [F,CF]6 [F,A,F]2 | [G,CE]2 [G,CG]2 [G,B,F]3[K:bass] [C,G,] | %19
[M:3/4] [C,G,]6 |] %20
V:3
 x8 | x8 | x8 | z4 z2 G,,2 |[M:3/4] x6 |[M:1/4] x2 |[M:4/4] x8 | x8 | x8 |[M:3/4] x6 |[M:1/4] x2 | %11
[M:4/4][K:treble] x8 | x8 | x8 |[M:3/4][K:bass] [C,C]6 |[M:1/4] x2 |[M:4/4] x8 | x8 | %18
 x7[K:bass] x |[M:3/4] x6 |] %20

